assets/icons/input_enabled.svg

<svg width="21" height="20" viewBox="0 0 21 20" fill="none"
    xmlns="http://www.w3.org/2000/svg">
    <path d="M4.125 0C3.42929 0.000130313 2.75351 0.232298 2.20461 0.659752C1.65571 1.08721 1.26506 1.68553 1.0945 2.36C1.39982 2.25442 1.72617 2.22438 2.04563 2.27244C2.36509 2.3205 2.66816 2.44523 2.9289 2.63596C3.18965 2.82669 3.40031 3.07775 3.54286 3.36766C3.68541 3.65756 3.75562 3.97768 3.74747 4.30064C3.73932 4.62359 3.65306 4.93976 3.49606 5.22211C3.33907 5.50446 3.11602 5.74457 2.84599 5.92191C2.57596 6.09925 2.26698 6.20853 1.9455 6.24042C1.62403 6.27231 1.29961 6.22584 1 6.105V14.875C1 15.7038 1.32924 16.4987 1.91529 17.0847C2.50134 17.6708 3.2962 18 4.125 18H10.022C9.35284 16.9554 8.99809 15.7405 9 14.5C9 13.316 9.3165 12.206 9.87 11.25H6.625C6.45924 11.25 6.30027 11.1842 6.18306 11.0669C6.06585 10.9497 6 10.7908 6 10.625C6 10.4592 6.06585 10.3003 6.18306 10.1831C6.30027 10.0658 6.45924 10 6.625 10H10.81C11.9925 8.7675 13.6565 8 15.5 8C16.7885 8 17.99 8.375 19 9.022V3.125C19 2.2962 18.6708 1.50134 18.0847 0.915291C17.4987 0.32924 16.7038 0 15.875 0H4.125ZM6 7.125C6 6.78 6.28 6.5 6.625 6.5H13.375C13.4571 6.5 13.5383 6.51617 13.6142 6.54757C13.69 6.57898 13.7589 6.62502 13.8169 6.68306C13.875 6.74109 13.921 6.80999 13.9524 6.88582C13.9838 6.96165 14 7.04292 14 7.125C14 7.20708 13.9838 7.28835 13.9524 7.36418C13.921 7.44001 13.875 7.50891 13.8169 7.56694C13.7589 7.62498 13.69 7.67102 13.6142 7.70243C13.5383 7.73383 13.4571 7.75 13.375 7.75H6.625C6.28 7.75 6 7.47 6 7.125Z" fill="#4F46E5"/>
    <path d="M1.75 3C1.58578 2.99974 1.42311 3.03189 1.27134 3.09462C1.11956 3.15734 0.981656 3.2494 0.865531 3.36553C0.749405 3.48166 0.657341 3.61956 0.594616 3.77134C0.531891 3.92311 0.499738 4.08578 0.500002 4.25C0.499738 4.41423 0.531891 4.57689 0.594616 4.72867C0.657341 4.88044 0.749405 5.01835 0.865531 5.13447C0.981656 5.2506 1.11956 5.34266 1.27134 5.40539C1.42311 5.46811 1.58578 5.50027 1.75 5.5C2.08152 5.5 2.39946 5.36831 2.63389 5.13389C2.86831 4.89946 3 4.58152 3 4.25C3 3.91848 2.86831 3.60054 2.63389 3.36612C2.39946 3.1317 2.08152 3 1.75 3Z" fill="#6366F1"/>
    <path d="M21 14.5C21 17.5375 18.5375 20 15.5 20C12.4625 20 10 17.5375 10 14.5C10 11.4625 12.4625 9 15.5 9C18.5375 9 21 11.4625 21 14.5ZM16 11C16 10.8674 15.9473 10.7402 15.8536 10.6464C15.7598 10.5527 15.6326 10.5 15.5 10.5C15.3674 10.5 15.2402 10.5527 15.1464 10.6464C15.0527 10.7402 15 10.8674 15 11V14H12C11.8674 14 11.7402 14.0527 11.6464 14.1464C11.5527 14.2402 11.5 14.3674 11.5 14.5C11.5 14.6326 11.5527 14.7598 11.6464 14.8536C11.7402 14.9473 11.8674 15 12 15H15V18C15 18.1326 15.0527 18.2598 15.1464 18.3536C15.2402 18.4473 15.3674 18.5 15.5 18.5C15.6326 18.5 15.7598 18.4473 15.8536 18.3536C15.9473 18.2598 16 18.1326 16 18V15H19C19.1326 15 19.2598 14.9473 19.3536 14.8536C19.4473 14.7598 19.5 14.6326 19.5 14.5C19.5 14.3674 19.4473 14.2402 19.3536 14.1464C19.2598 14.0527 19.1326 14 19 14H16V11Z" fill="#6366F1"/>
</svg>

<svg fill="none" xmlns="http://www.w3.org/2000/svg" viewBox="0 0 21 20"><path d="M4.125 0a3.126 3.126 0 0 0-3.03 2.36A2 2 0 1 1 1 6.105v8.77A3.125 3.125 0 0 0 4.125 18h5.897A6.47 6.47 0 0 1 9 14.5a6.46 6.46 0 0 1 .87-3.25H6.625a.625.625 0 1 1 0-1.25h4.185a6.48 6.48 0 0 1 4.69-2A6.47 6.47 0 0 1 19 9.022V3.125A3.125 3.125 0 0 0 15.875 0zM6 7.125c0-.345.28-.625.625-.625h6.75a.625.625 0 0 1 0 1.25h-6.75A.625.625 0 0 1 6 7.125" fill="#4F46E5"/><path d="M1.75 3A1.248 1.248 0 0 0 .595 4.729a1.248 1.248 0 0 0 2.039.405A1.25 1.25 0 0 0 1.75 3M21 14.5a5.5 5.5 0 1 1-11 0 5.5 5.5 0 0 1 11 0M16 11a.5.5 0 0 0-1 0v3h-3a.5.5 0 0 0 0 1h3v3a.5.5 0 0 0 1 0v-3h3a.5.5 0 0 0 0-1h-3z" fill="#6366F1"/></svg>
